packages/ui-icons/svg/Solid/video-camera-off.svg

<svg viewBox="0 0 1920 1920" version="1.1" xmlns="http://www.w3.org/2000/svg">
    <path d="M1421.14123,3.0066885 L1512.916,67.2688495 L215.481342,1919.55138 L216.076,1919.96785 L215.698175,1920.50798 L123.327514,1855.82935 L246.487,1679.99985 L0,1680 L0,240 L1255.139,239.999849 L1421.14123,3.0066885 Z M1500.536,281.493849 L1500.53647,791.830588 L1920,346.051765 L1920,1574.06118 L1500.53647,1128.16941 L1500.53647,1680 L520.95,1679.99985 L1500.536,281.493849 Z" stroke="none" stroke-width="1" fill-rule="evenodd"/>
</svg>

<svg viewBox="0 0 1920 1920" xmlns="http://www.w3.org/2000/svg">
    <path d="m1421.141 3.007 91.775 64.262L215.481 1919.55l.595.417-.378.54-92.37-64.679L246.487 1680H0V240h1255.139L1421.141 3.007Zm79.395 278.487V791.83L1920 346.05v1228.01l-419.464-445.892V1680H520.95l979.586-1398.506Z" fill-rule="evenodd"/>
</svg>
